X:85
T:No. 85. JBs. 085
S:Jas.Blackshaw MS, 1837, N.Shropshire
A:North Shropshire
Z:T. Weatherall 2006
M:4/4
L:1/8
Q:1/4=110
R:Fanfare?
K:F
(3cde|:f6(3aga|g6(3bab|a6(b/a/g/f/)|e2d2c2 (e/c/e/g/)|
fz gz az gz|az fz gz ez|ffgg aagg|aaff ggee|
f2d2g2e2|f2b2a2f2|f2f>ff2f2|1fcAc fcAc:|2f8:|

